X: 39
T:Road to Dundee
R:
M:3/4
L:1/4
K:A
e|e3/2 d/2c|cBE|AGF|EAc|
d3/2 e/2f|ecA| (3A/2B/2A/2 G A|B2e|
e3/2 d/2c|cBE|AGF|EAc|
d3/2 e/2f|ecA|dBG|A2E|]
